svg/Mapbox-maki/playground-18.svg

<?xml version="1.0" encoding="UTF-8" standalone="no"?>
<!-- Created with Inkscape (http://www.inkscape.org/) -->

<svg
   xmlns:dc="http://purl.org/dc/elements/1.1/"
   xmlns:cc="http://creativecommons.org/ns#"
   xmlns:rdf="http://www.w3.org/1999/02/22-rdf-syntax-ns#"
   xmlns:svg="http://www.w3.org/2000/svg"
   xmlns="http://www.w3.org/2000/svg"
   xmlns:sodipodi="http://sodipodi.sourceforge.net/DTD/sodipodi-0.dtd"
   xmlns:inkscape="http://www.inkscape.org/namespaces/inkscape"
   width="18"
   height="18"
   id="svg4619"
   version="1.1"
   inkscape:version="0.48.2 r9819"
   sodipodi:docname="playground-18.svg">
  <defs
     id="defs4621" />
  <sodipodi:namedview
     id="base"
     pagecolor="#ffffff"
     bordercolor="#666666"
     borderopacity="1.0"
     inkscape:pageopacity="0.0"
     inkscape:pageshadow="2"
     inkscape:zoom="1"
     inkscape:cx="11.850188"
     inkscape:cy="12.302397"
     inkscape:document-units="px"
     inkscape:current-layer="layer1"
     showgrid="false"
     showguides="false"
     inkscape:guide-bbox="true"
     inkscape:window-width="1705"
     inkscape:window-height="919"
     inkscape:window-x="110"
     inkscape:window-y="20"
     inkscape:window-maximized="0"
     inkscape:snap-grids="true"
     inkscape:snap-to-guides="false"
     inkscape:object-paths="true"
     inkscape:snap-bbox="true"
     inkscape:snap-nodes="false">
    <inkscape:grid
       type="xygrid"
       id="grid4627"
       empspacing="2"
       visible="true"
       enabled="true"
       snapvisiblegridlinesonly="true"
       color="#ff00ff"
       opacity="0.1254902"
       empcolor="#ff00ff"
       empopacity="0.25098039" />
    <sodipodi:guide
       orientation="0,1"
       position="7,18"
       id="guide4659" />
    <sodipodi:guide
       orientation="1,0"
       position="18,9"
       id="guide4661" />
    <sodipodi:guide
       orientation="0,1"
       position="16,17"
       id="guide4663" />
    <sodipodi:guide
       orientation="1,0"
       position="17,14"
       id="guide4665" />
    <sodipodi:guide
       orientation="1,0"
       position="0,16"
       id="guide4667" />
    <sodipodi:guide
       orientation="0,1"
       position="8,0"
       id="guide4669" />
    <sodipodi:guide
       orientation="1,0"
       position="2,10"
       id="guide4671" />
    <sodipodi:guide
       orientation="0,1"
       position="12,2"
       id="guide4673" />
  </sodipodi:namedview>
  <metadata
     id="metadata4624">
    <rdf:RDF>
      <cc:Work
         rdf:about="">
        <dc:format>image/svg+xml</dc:format>
        <dc:type
           rdf:resource="http://purl.org/dc/dcmitype/StillImage" />
        <dc:title />
      </cc:Work>
    </rdf:RDF>
  </metadata>
  <g
     inkscape:label="Layer 1"
     inkscape:groupmode="layer"
     id="layer1"
     transform="translate(0,-1034.3622)"
     style="display:inline">
    <path
       sodipodi:nodetypes="ssssssssssccccccccccsccccccccsccccccc"
       inkscape:connector-curvature="0"
       id="path3988"
       transform="translate(0,1034.3622)"
       d="M 10.75,2 C 10.0575,2 9.5,2.5578 9.5,3.25 9.5,3.9429 10.0575,4.5 10.75,4.5 11.442498,4.5 12,3.9429 12,3.25 12,2.5578 11.442498,2 10.75,2 z M 6.25,4 C 5.5575002,4 5,4.5576 5,5.25 5,5.9427 5.5575002,6.5 6.25,6.5 6.9425,6.5 7.5,5.9427 7.5,5.25 7.5,4.5576 6.9425,4 6.25,4 z M 11.5,5 10.53125,8.71875 7.1875,9.625 5.53125,6.96875 4.5,7 3.59375,10.5625 2,11 l 0,2 3.09375,-0.84375 -1,1.713226 c -0.1967997,0.342826 -0.063221,0.833399 0.2803905,1.029748 0.3436117,0.19635 0.8353098,0.06308 1.0321095,-0.279748 L 7.125,11.625 8.75,11.1875 7,15 12,15 10.125,10.84375 11.4375,10.5 l 2.28125,2.28125 c 0.279052,0.277275 0.786037,0.276467 1.064199,-0.0017 0.278162,-0.278162 0.277353,-0.783531 -0.0017,-1.060806 L 13.09375,10.03125 17,9 17,7 14.25,7.71875 12.5625,5 z"
       style="color:#000000;fill:none;fill-opacity:1;fill-rule:nonzero;stroke:#ffffff;stroke-width:2;marker:none;visibility:visible;display:inline;overflow:visible;enable-background:accumulate;opacity:0.3" />
    <path
       style="color:#000000;fill:#444444;fill-opacity:1;fill-rule:nonzero;stroke:none;stroke-width:2;marker:none;visibility:visible;display:inline;overflow:visible;enable-background:accumulate"
       d="M 10.75,2 C 10.0575,2 9.5,2.5578 9.5,3.25 9.5,3.9429 10.0575,4.5 10.75,4.5 11.442498,4.5 12,3.9429 12,3.25 12,2.5578 11.442498,2 10.75,2 z M 6.25,4 C 5.5575002,4 5,4.5576 5,5.25 5,5.9427 5.5575002,6.5 6.25,6.5 6.9425,6.5 7.5,5.9427 7.5,5.25 7.5,4.5576 6.9425,4 6.25,4 z M 11.5,5 10.53125,8.71875 7.1875,9.625 5.53125,6.96875 4.5,7 3.59375,10.5625 2,11 l 0,2 3.09375,-0.84375 -1,1.713226 c -0.1967997,0.342826 -0.063221,0.833399 0.2803905,1.029748 0.3436117,0.19635 0.8353098,0.06308 1.0321095,-0.279748 L 7.125,11.625 8.75,11.1875 7,15 12,15 10.125,10.84375 11.4375,10.5 l 2.28125,2.28125 c 0.279052,0.277275 0.786037,0.276467 1.064199,-0.0017 0.278162,-0.278162 0.277353,-0.783531 -0.0017,-1.060806 L 13.09375,10.03125 17,9 17,7 14.25,7.71875 12.5625,5 z"
       transform="translate(0,1034.3622)"
       id="path3025"
       inkscape:connector-curvature="0"
       sodipodi:nodetypes="ssssssssssccccccccccsccccccccsccccccc" />
  </g>
</svg>

<svg xmlns="http://www.w3.org/2000/svg" viewBox="0 0 18 18"><g color="#000"><path d="m10.75 2c-.693 0-1.25.558-1.25 1.25 0 .693.557 1.25 1.25 1.25.692 0 1.25-.557 1.25-1.25 0-.692-.558-1.25-1.25-1.25zm-4.5 2c-.692 0-1.25.558-1.25 1.25 0 .693.558 1.25 1.25 1.25.692 0 1.25-.557 1.25-1.25 0-.692-.558-1.25-1.25-1.25zm5.25 1l-.969 3.719-3.344.906-1.656-2.656-1.031.031-.906 3.563-1.594.438v2l3.094-.844-1 1.713c-.197.343-.063.833.28 1.03.344.196.835.063 1.032-.28l1.719-2.994 1.625-.438-1.75 3.813h5l-1.875-4.156 1.313-.344 2.281 2.281c.279.277.786.276 1.064-.002.278-.278.277-.784-.002-1.061l-1.687-1.687 3.906-1.031v-2l-2.75.719-1.688-2.719z" opacity=".3" fill="none" stroke="#fff" stroke-width="2"/><path d="m10.75 2c-.693 0-1.25.558-1.25 1.25 0 .693.557 1.25 1.25 1.25.692 0 1.25-.557 1.25-1.25 0-.692-.558-1.25-1.25-1.25m-4.5 2c-.692 0-1.25.558-1.25 1.25 0 .693.558 1.25 1.25 1.25.692 0 1.25-.557 1.25-1.25 0-.692-.558-1.25-1.25-1.25m5.25 1l-.969 3.719-3.344.906-1.656-2.656-1.031.031-.906 3.563-1.594.438v2l3.094-.844-1 1.713c-.197.343-.063.833.28 1.03.344.196.835.063 1.032-.28l1.719-2.994 1.625-.438-1.75 3.813h5l-1.875-4.156 1.313-.344 2.281 2.281c.279.277.786.276 1.064-.002.278-.278.277-.784-.002-1.061l-1.687-1.687 3.906-1.031v-2l-2.75.719-1.688-2.719z" fill="#444"/></g></svg>
